doc/pictures/7segdetails.svg

<?xml version="1.0" encoding="UTF-8" standalone="no"?>
<svg
   xmlns:dc="http://purl.org/dc/elements/1.1/"
   xmlns:cc="http://creativecommons.org/ns#"
   xmlns:rdf="http://www.w3.org/1999/02/22-rdf-syntax-ns#"
   xmlns:svg="http://www.w3.org/2000/svg"
   xmlns="http://www.w3.org/2000/svg"
   xmlns:sodipodi="http://sodipodi.sourceforge.net/DTD/sodipodi-0.dtd"
   xmlns:inkscape="http://www.inkscape.org/namespaces/inkscape"
   width="320"
   height="320"
   id="svg2"
   sodipodi:version="0.32"
   inkscape:version="1.0.1 (3bc2e813f5, 2020-09-07)"
   version="1.0"
   sodipodi:docname="7segdetails.svg"
   viewBox="0 0 300 300">
  <defs
     id="defs4" />
  <sodipodi:namedview
     id="base"
     pagecolor="#ffffff"
     bordercolor="#666666"
     borderopacity="1.0"
     gridtolerance="10000"
     guidetolerance="10"
     objecttolerance="10"
     inkscape:pageopacity="0.0"
     inkscape:pageshadow="2"
     inkscape:zoom="1.7411011"
     inkscape:cx="17.877222"
     inkscape:cy="127.72457"
     inkscape:document-units="px"
     inkscape:current-layer="layer1"
     width="300px"
     height="300px"
     inkscape:window-width="1916"
     inkscape:window-height="1036"
     inkscape:window-x="1920"
     inkscape:window-y="20"
     inkscape:document-rotation="0"
     showgrid="false"
     inkscape:window-maximized="0" />
  <metadata
     id="metadata7">
    <rdf:RDF>
      <cc:Work
         rdf:about="">
        <dc:format>image/svg+xml</dc:format>
        <dc:type
           rdf:resource="http://purl.org/dc/dcmitype/StillImage" />
      </cc:Work>
    </rdf:RDF>
  </metadata>
  <g
     inkscape:label="Layer 1"
     inkscape:groupmode="layer"
     id="layer1">
    <path
       style="font-size:24px;fill:#ececec;fill-rule:evenodd;stroke:#000000;stroke-width:1px;stroke-linecap:butt;stroke-linejoin:miter;stroke-opacity:1"
       d="M 190.79731,72.5 175.58534,88 H 116.58535 L 101.06756,72.5 116.58535,57 h 58.99999 z"
       id="path1872"
       sodipodi:nodetypes="ccccccc" />
    <path
       style="font-size:24px;fill:#ececec;fill-rule:evenodd;stroke:#000000;stroke-width:1px;stroke-linecap:butt;stroke-linejoin:miter;stroke-opacity:1"
       d="m 190.79731,154 -15.21197,15.5 H 116.58535 L 101.06756,154 116.58535,138.5 h 58.99999 z"
       id="path2779"
       sodipodi:nodetypes="ccccccc" />
    <path
       style="font-size:24px;fill:#ececec;fill-rule:evenodd;stroke:#000000;stroke-width:1px;stroke-linecap:butt;stroke-linejoin:miter;stroke-opacity:1"
       d="m 98,75.38513 15.5,15.21196 v 44.99999 L 98,151.11487 82.5,135.59708 V 90.59709 Z"
       id="path2781"
       sodipodi:nodetypes="ccccccc" />
    <path
       style="font-size:24px;fill:#ececec;fill-rule:evenodd;stroke:#000000;stroke-width:1px;stroke-linecap:butt;stroke-linejoin:miter;stroke-opacity:1"
       d="m 194,75.38513 15.5,15.21196 v 44.99999 L 194,151.11487 178.5,135.59708 V 90.59709 Z"
       id="path2789"
       sodipodi:nodetypes="ccccccc" />
    <path
       style="font-size:24px;fill:#ececec;fill-rule:evenodd;stroke:#000000;stroke-width:1px;stroke-linecap:butt;stroke-linejoin:miter;stroke-opacity:1"
       d="m 190.79731,236.05743 -15.21197,15.5 h -58.99999 l -15.51779,-15.5 15.51779,-15.5 h 58.99999 z"
       id="path2791"
       sodipodi:nodetypes="ccccccc" />
    <path
       style="font-size:24px;fill:#ececec;fill-rule:evenodd;stroke:#000000;stroke-width:1px;stroke-linecap:butt;stroke-linejoin:miter;stroke-opacity:1"
       d="m 98,157.44257 15.5,15.21196 v 44.99999 L 98,233.1723 82.5,217.65452 v -44.99999 z"
       id="path2793"
       sodipodi:nodetypes="ccccccc" />
    <path
       style="font-size:24px;fill:#ececec;fill-rule:evenodd;stroke:#000000;stroke-width:1px;stroke-linecap:butt;stroke-linejoin:miter;stroke-opacity:1"
       d="m 194,157.44257 15.5,15.21196 v 44.99999 L 194,233.1723 178.5,217.65452 v -44.99999 z"
       id="path2795"
       sodipodi:nodetypes="ccccccc" />
    <circle
       style="font-size:16.6806px;fill:#ececec;fill-opacity:1;fill-rule:nonzero;stroke:#000000;stroke-linecap:round;stroke-linejoin:miter;stroke-opacity:1"
       id="path2797"
       transform="matrix(1.474389,0,0,1.404061,-77.23529,-186.3204)"
       cx="209.25"
       cy="299.25"
       r="12.25" />
    <text
       xml:space="preserve"
       x="137.72931"
       y="81.248047"
       id="text1909"
       style="line-height:0%"><tspan
         sodipodi:role="line"
         id="tspan1911"
         x="137.72931"
         y="81.248047"
         style="font-size:24px;line-height:1.25">A</tspan></text>
    <text
       xml:space="preserve"
       x="185.43945"
       y="121.99805"
       id="text1913"
       style="line-height:0%"><tspan
         sodipodi:role="line"
         id="tspan1915"
         x="185.43945"
         y="121.99805"
         style="font-size:24px;line-height:1.25">B</tspan></text>
    <text
       xml:space="preserve"
       x="185.59766"
       y="204.04376"
       id="text1917"
       style="line-height:0%"><tspan
         sodipodi:role="line"
         id="tspan1919"
         x="185.59766"
         y="204.04376"
         style="font-size:24px;line-height:1.25">C</tspan></text>
    <text
       xml:space="preserve"
       x="136.22345"
       y="244.80548"
       id="text1921"
       style="line-height:0%"><tspan
         sodipodi:role="line"
         id="tspan1923"
         x="136.22345"
         y="244.80548"
         style="font-size:24px;line-height:1.25">D</tspan></text>
    <text
       xml:space="preserve"
       x="90.007812"
       y="204.05548"
       id="text1925"
       style="line-height:0%"><tspan
         sodipodi:role="line"
         id="tspan1927"
         x="90.007812"
         y="204.05548"
         style="font-size:24px;line-height:1.25">E</tspan></text>
    <text
       xml:space="preserve"
       x="90.617188"
       y="121.99805"
       id="text1929"
       style="line-height:0%"><tspan
         sodipodi:role="line"
         id="tspan1931"
         x="90.617188"
         y="121.99805"
         style="font-size:24px;line-height:1.25">F</tspan></text>
    <text
       xml:space="preserve"
       x="136.94415"
       y="162.73633"
       id="text1933"
       style="line-height:0%"><tspan
         sodipodi:role="line"
         id="tspan1935"
         x="136.94415"
         y="162.73633"
         style="font-size:24px;line-height:1.25">G</tspan></text>
    <text
       xml:space="preserve"
       x="218.3519"
       y="240.40588"
       id="text1937"
       style="line-height:0%"><tspan
         sodipodi:role="line"
         id="tspan1939"
         x="218.3519"
         y="240.40588"
         style="font-size:18px;line-height:1.25">DP</tspan></text>
  </g>
</svg>

<?xml version="1.0" encoding="UTF-8" standalone="no"?>
<!-- Created with Inkscape (http://www.inkscape.org/) -->
<svg
   xmlns:dc="http://purl.org/dc/elements/1.1/"
   xmlns:cc="http://web.resource.org/cc/"
   xmlns:rdf="http://www.w3.org/1999/02/22-rdf-syntax-ns#"
   xmlns:svg="http://www.w3.org/2000/svg"
   xmlns="http://www.w3.org/2000/svg"
   xmlns:sodipodi="http://sodipodi.sourceforge.net/DTD/sodipodi-0.dtd"
   xmlns:inkscape="http://www.inkscape.org/namespaces/inkscape"
   width="300"
   height="300"
   id="svg2"
   sodipodi:version="0.32"
   inkscape:version="0.44.1"
   version="1.0"
   sodipodi:docbase="/home/user"
   sodipodi:docname="7_segment_display_labeled.svg">
  <defs
     id="defs4" />
  <sodipodi:namedview
     id="base"
     pagecolor="#ffffff"
     bordercolor="#666666"
     borderopacity="1.0"
     gridtolerance="10000"
     guidetolerance="10"
     objecttolerance="10"
     inkscape:pageopacity="0.0"
     inkscape:pageshadow="2"
     inkscape:zoom="1.7411011"
     inkscape:cx="128.43944"
     inkscape:cy="127.72457"
     inkscape:document-units="px"
     inkscape:current-layer="layer1"
     width="300px"
     height="300px"
     inkscape:window-width="1016"
     inkscape:window-height="692"
     inkscape:window-x="0"
     inkscape:window-y="0" />
  <metadata
     id="metadata7">
    <rdf:RDF>
      <cc:Work
         rdf:about="">
        <dc:format>image/svg+xml</dc:format>
        <dc:type
           rdf:resource="http://purl.org/dc/dcmitype/StillImage" />
      </cc:Work>
    </rdf:RDF>
  </metadata>
  <g
     inkscape:label="Layer 1"
     inkscape:groupmode="layer"
     id="layer1">
    <path
       style="fill:#ececec;fill-rule:evenodd;stroke:black;stroke-width:1px;stroke-linecap:butt;stroke-linejoin:miter;stroke-opacity:1;font-size:24"
       d="M 190.79731,72.5 L 175.58534,88 L 116.58535,88 L 101.06756,72.5 L 116.58535,57 L 175.58534,57 L 190.79731,72.5 z "
       id="path1872"
       sodipodi:nodetypes="ccccccc" />
    <path
       style="fill:#ececec;fill-rule:evenodd;stroke:black;stroke-width:1px;stroke-linecap:butt;stroke-linejoin:miter;stroke-opacity:1;font-size:24"
       d="M 190.79731,154 L 175.58534,169.5 L 116.58535,169.5 L 101.06756,154 L 116.58535,138.5 L 175.58534,138.5 L 190.79731,154 z "
       id="path2779"
       sodipodi:nodetypes="ccccccc" />
    <path
       style="fill:#ececec;fill-rule:evenodd;stroke:black;stroke-width:1px;stroke-linecap:butt;stroke-linejoin:miter;stroke-opacity:1;font-size:24"
       d="M 98,75.38513 L 113.5,90.59709 L 113.5,135.59708 L 98,151.11487 L 82.5,135.59708 L 82.5,90.59709 L 98,75.38513 z "
       id="path2781"
       sodipodi:nodetypes="ccccccc" />
    <path
       style="fill:#ececec;fill-rule:evenodd;stroke:black;stroke-width:1px;stroke-linecap:butt;stroke-linejoin:miter;stroke-opacity:1;font-size:24"
       d="M 194,75.38513 L 209.5,90.59709 L 209.5,135.59708 L 194,151.11487 L 178.5,135.59708 L 178.5,90.59709 L 194,75.38513 z "
       id="path2789"
       sodipodi:nodetypes="ccccccc" />
    <path
       style="fill:#ececec;fill-rule:evenodd;stroke:black;stroke-width:1px;stroke-linecap:butt;stroke-linejoin:miter;stroke-opacity:1;font-size:24"
       d="M 190.79731,236.05743 L 175.58534,251.55743 L 116.58535,251.55743 L 101.06756,236.05743 L 116.58535,220.55743 L 175.58534,220.55743 L 190.79731,236.05743 z "
       id="path2791"
       sodipodi:nodetypes="ccccccc" />
    <path
       style="fill:#ececec;fill-rule:evenodd;stroke:black;stroke-width:1px;stroke-linecap:butt;stroke-linejoin:miter;stroke-opacity:1;font-size:24"
       d="M 98,157.44257 L 113.5,172.65453 L 113.5,217.65452 L 98,233.1723 L 82.5,217.65452 L 82.5,172.65453 L 98,157.44257 z "
       id="path2793"
       sodipodi:nodetypes="ccccccc" />
    <path
       style="fill:#ececec;fill-rule:evenodd;stroke:black;stroke-width:1px;stroke-linecap:butt;stroke-linejoin:miter;stroke-opacity:1;font-size:24"
       d="M 194,157.44257 L 209.5,172.65453 L 209.5,217.65452 L 194,233.1723 L 178.5,217.65452 L 178.5,172.65453 L 194,157.44257 z "
       id="path2795"
       sodipodi:nodetypes="ccccccc" />
    <path
       sodipodi:type="arc"
       style="fill:#ececec;fill-opacity:1;fill-rule:nonzero;stroke:black;stroke-linecap:round;stroke-linejoin:miter;stroke-opacity:1;font-size:16.68062091"
       id="path2797"
       sodipodi:cx="209.25"
       sodipodi:cy="299.25"
       sodipodi:rx="12.25"
       sodipodi:ry="12.25"
       d="M 221.5 299.25 A 12.25 12.25 0 1 1  197,299.25 A 12.25 12.25 0 1 1  221.5 299.25 z"
       transform="matrix(1.474389,0,0,1.404061,-77.23529,-186.3204)" />
    <text
       xml:space="preserve"
       x="137.72931"
       y="81.248047"
       id="text1909"
       style="font-size:24px"><tspan
         sodipodi:role="line"
         id="tspan1911"
         x="137.72931"
         y="81.248047">A</tspan></text>
    <text
       xml:space="preserve"
       x="185.43945"
       y="121.99805"
       id="text1913"
       style="font-size:24px"><tspan
         sodipodi:role="line"
         id="tspan1915"
         x="185.43945"
         y="121.99805">B</tspan></text>
    <text
       xml:space="preserve"
       x="185.59766"
       y="204.04376"
       id="text1917"
       style="font-size:24px"><tspan
         sodipodi:role="line"
         id="tspan1919"
         x="185.59766"
         y="204.04376">C</tspan></text>
    <text
       xml:space="preserve"
       x="136.22345"
       y="244.80548"
       id="text1921"
       style="font-size:24px"><tspan
         sodipodi:role="line"
         id="tspan1923"
         x="136.22345"
         y="244.80548">D</tspan></text>
    <text
       xml:space="preserve"
       x="90.007812"
       y="204.05548"
       id="text1925"
       style="font-size:24px"><tspan
         sodipodi:role="line"
         id="tspan1927"
         x="90.007812"
         y="204.05548">E</tspan></text>
    <text
       xml:space="preserve"
       x="90.617188"
       y="121.99805"
       id="text1929"
       style="font-size:24px"><tspan
         sodipodi:role="line"
         id="tspan1931"
         x="90.617188"
         y="121.99805">F</tspan></text>
    <text
       xml:space="preserve"
       x="136.94415"
       y="162.73633"
       id="text1933"
       style="font-size:24px"><tspan
         sodipodi:role="line"
         id="tspan1935"
         x="136.94415"
         y="162.73633">G</tspan></text>
    <text
       xml:space="preserve"
       x="218.3519"
       y="240.40588"
       id="text1937"
       style="font-size:24px"><tspan
         sodipodi:role="line"
         id="tspan1939"
         x="218.3519"
         y="240.40588"
         style="font-size:18px">DP</tspan></text>
  </g>
</svg>
